lib/logo_tmp/nrk-logo-nrk-p1-pluss-with-bg.svg

<svg width="87" height="28" viewBox="0 0 87 28" fill="none" xmlns="http://www.w3.org/2000/svg">
<rect width="87" height="28" fill="#015F88"/>
<path d="M6.66663 21V7.00123H11.26V21H6.66663ZM17.5094 9.2292L20.151 21H15.124L11.9697 7.00123H14.7892C15.4357 6.99284 16.063 7.22075 16.5535 7.64208C17.0449 8.04574 17.3824 8.60611 17.5094 9.2292ZM20.8411 21V7.00123H25.4345V21H20.8411ZM28.9038 12.3247C28.4089 12.3296 27.9218 12.2001 27.4946 11.9501C27.073 11.7064 26.7229 11.3562 26.4793 10.9347C26.229 10.5073 26.0995 10.0202 26.1044 9.525C26.0988 9.03283 26.2284 8.54857 26.4793 8.12512C26.7255 7.70811 27.0752 7.36174 27.4946 7.11957C27.922 6.86988 28.4089 6.74039 28.9038 6.74491C29.3959 6.73961 29.8799 6.86921 30.3035 7.11957C30.7187 7.36386 31.0647 7.70995 31.309 8.12512C31.5596 8.54869 31.6892 9.03287 31.6838 9.525C31.6884 10.0201 31.5589 10.5072 31.309 10.9347C31.0673 11.3544 30.7209 11.7043 30.3035 11.9501C29.8799 12.2009 29.3955 12.3306 28.9032 12.3247H28.9038ZM32.3935 21V7.00123H36.9873V21H32.3935ZM42.8027 14.6512C42.8156 14.6648 42.9141 14.8258 43.0983 15.1343C43.2826 15.4427 43.5224 15.8371 43.8179 16.3173C44.1136 16.7973 44.4257 17.3066 44.754 17.8453C45.0824 18.384 45.3913 18.8934 45.6809 19.3734C45.9694 19.8534 46.298 20.3955 46.6666 21H41.6198C41.3041 20.4873 41.0181 20.024 40.7618 19.61C40.5056 19.1959 40.2331 18.749 39.9444 18.2692C39.6551 17.7899 39.369 17.3233 39.0862 16.8693C38.8034 16.4154 38.5604 16.0178 38.3571 15.6765C38.153 15.335 38.0116 15.1049 37.9329 14.9864C37.7379 14.6923 37.6225 14.3526 37.5981 14.0006C37.6176 13.6627 37.7263 13.3361 37.9132 13.0539C37.992 12.9225 38.1366 12.6891 38.3469 12.3539C38.5572 12.0188 38.8036 11.6212 39.0862 11.1611C39.3688 10.7011 39.6549 10.2312 39.9444 9.7514C40.234 9.27163 40.5064 8.8214 40.7618 8.40078C41.0186 7.9806 41.3046 7.51398 41.6198 7.00091H46.6666L42.7629 13.3694C42.6421 13.5585 42.574 13.7764 42.5657 14.0006C42.5787 14.236 42.6609 14.4623 42.8019 14.6512H42.8027Z" fill="white"/>
<path d="M61.4905 8.81428C61.2485 8.44039 60.9378 8.11593 60.575 7.85807C60.1705 7.57445 59.7212 7.36114 59.2459 7.22713C58.6689 7.06766 58.0723 6.99143 57.4738 7.00073H52V20.9994H54.0674V15.9717H57.6313C58.4357 15.984 59.2295 15.787 59.9351 15.3999C60.6112 15.025 61.1727 14.4729 61.5594 13.8029C61.974 13.0635 62.1815 12.2257 62.16 11.3781C62.1617 10.9198 62.1089 10.463 62.0025 10.0173C61.9001 9.5905 61.7271 9.18386 61.4905 8.81428ZM59.6594 13.0632C59.3946 13.4789 59.0052 13.8 58.5469 13.9803C57.9906 14.1909 57.3986 14.2914 56.804 14.276H54.0674V8.71604H57.08C57.6555 8.69418 58.2282 8.8055 58.7536 9.04136C59.1716 9.24375 59.5134 9.5756 59.7283 9.98775C59.9558 10.4501 60.0673 10.9611 60.0531 11.4763C60.0757 12.0321 59.9391 12.5827 59.6594 13.0632Z" fill="#85E6D6"/>
<path d="M66.3634 7.46401C66.0812 7.61517 65.8056 7.75638 65.5367 7.88761C65.2679 8.01883 64.9955 8.15026 64.7196 8.28192C64.444 8.41336 64.1618 8.53201 63.873 8.63684C63.5842 8.74166 63.2754 8.84746 62.9472 8.95229L63.3808 10.6282C63.7746 10.5099 64.1322 10.3916 64.4535 10.2733C64.7686 10.158 65.0775 10.0264 65.3789 9.87894C65.6747 9.73479 65.97 9.57718 66.2649 9.40609L66.2748 9.40019V21H68.3222V7.00135H67.2593C66.944 7.15842 66.6454 7.31263 66.3634 7.46401Z" fill="#85E6D6"/>
<path d="M76.3363 13.2308V9.24838H74.6036V13.2308H70.6066V14.7884H74.6036V18.7517H76.3363V14.7884H80.3333V13.2308H76.3363Z" fill="#85E6D6"/>
</svg>

<svg xmlns="http://www.w3.org/2000/svg" viewBox="0 0 87 28"><path fill="#015F88" d="M0 0h87v28H0z"/><path fill="#fff" d="M6.667 21V7.001h4.593V21H6.667ZM17.509 9.23 20.151 21h-5.027L11.97 7.001h2.82a2.655 2.655 0 0 1 1.764.641c.49.404.828.964.955 1.587ZM20.841 21V7.001h4.593V21h-4.593Zm8.063-8.675a2.779 2.779 0 0 1-2.425-1.39 2.736 2.736 0 0 1-.375-1.41 2.686 2.686 0 0 1 .375-1.4 2.812 2.812 0 0 1 3.825-1.005c.415.244.76.59 1.005 1.005.25.424.38.908.375 1.4.004.495-.125.982-.375 1.41a2.8 2.8 0 0 1-1.006 1.015c-.423.25-.908.38-1.4.375ZM32.394 21V7.001h4.593V21h-4.593Zm10.409-6.349c.013.014.111.175.295.483.185.309.424.703.72 1.183a373.133 373.133 0 0 1 1.863 3.056c.288.48.617 1.022.986 1.627H41.62l-.858-1.39a127.3 127.3 0 0 1-.818-1.34c-.289-.48-.575-.947-.858-1.4a71.148 71.148 0 0 1-.729-1.194 20.758 20.758 0 0 0-.424-.69 2.04 2.04 0 0 1-.335-.985c.02-.338.128-.665.315-.947.079-.132.224-.365.434-.7a206.222 206.222 0 0 0 1.598-2.602c.289-.48.561-.93.817-1.351L41.62 7h5.047l-3.904 6.368c-.12.19-.189.407-.197.632.013.235.095.461.236.65Z"/><path fill="#85E6D6" d="M61.49 8.814a3.519 3.519 0 0 0-.915-.956 4.39 4.39 0 0 0-1.33-.63A6.285 6.285 0 0 0 57.475 7H52v13.998h2.067v-5.027h3.564a4.642 4.642 0 0 0 2.304-.572 4.262 4.262 0 0 0 1.624-1.597c.415-.74.623-1.577.601-2.425a5.768 5.768 0 0 0-.157-1.36 3.933 3.933 0 0 0-.513-1.204Zm-1.83 4.25a2.331 2.331 0 0 1-1.113.916 4.588 4.588 0 0 1-1.743.296h-2.737v-5.56h3.013a3.74 3.74 0 0 1 1.674.325c.418.203.76.535.974.947.228.462.34.973.325 1.488a2.919 2.919 0 0 1-.394 1.587ZM66.363 7.464c-.282.151-.557.292-.826.424l-.817.394c-.276.131-.558.25-.847.355-.289.105-.598.21-.926.315l.434 1.676c.394-.118.751-.236 1.073-.355.315-.115.624-.247.925-.394.296-.144.591-.302.886-.473l.01-.006V21h2.047V7.001H67.26a33.13 33.13 0 0 0-.896.463ZM76.336 13.23V9.249h-1.732v3.983h-3.997v1.557h3.997v3.964h1.732v-3.964h3.997v-1.557h-3.997Z"/></svg>
